src/packages/tokens/img/xvs.svg

<svg width="24" height="24" viewBox="0 0 24 24" fill="none" xmlns="http://www.w3.org/2000/svg">
<g clip-path="url(#clip0_8_2928)">
<circle cx="12" cy="12" r="12" fill="#1F2028"/>
<path d="M18.957 9.44225L13.687 18.5704C13.5276 18.8457 13.2987 19.0742 13.0231 19.2331C12.7476 19.392 12.4351 19.4757 12.117 19.4757C11.7989 19.4757 11.4864 19.392 11.2108 19.2331C10.9353 19.0742 10.7063 18.8457 10.547 18.5704L9.62314 16.9714C9.62017 16.9675 9.61889 16.9625 9.61959 16.9576C9.62029 16.9527 9.62291 16.9482 9.62688 16.9452C9.63085 16.9423 9.63584 16.941 9.64075 16.9417C9.64566 16.9424 9.65009 16.945 9.65306 16.949C9.81787 17.1117 10.0177 17.2345 10.2373 17.3081C10.4568 17.3817 10.6903 17.4041 10.9199 17.3736C11.1494 17.3431 11.369 17.2605 11.5617 17.1321C11.7545 17.0038 11.9153 16.833 12.0319 16.6329L16.4435 8.98406C16.5599 8.78212 16.6281 8.55612 16.6431 8.32356C16.658 8.09099 16.6192 7.85811 16.5297 7.64294C16.4402 7.42777 16.3024 7.23609 16.1269 7.08274C15.9515 6.92938 15.743 6.81847 15.5178 6.7586C15.5129 6.7586 15.5081 6.75663 15.5046 6.75312C15.5011 6.74961 15.4991 6.74485 15.4991 6.73989C15.4991 6.73493 15.5011 6.73018 15.5046 6.72667C15.5081 6.72316 15.5129 6.72119 15.5178 6.72119H17.388C17.7062 6.72154 18.0188 6.8056 18.2943 6.96496C18.5698 7.12431 18.7985 7.35335 18.9575 7.62906C19.1165 7.90477 19.2001 8.21745 19.2 8.53572C19.2 8.85398 19.1161 9.16662 18.957 9.44225ZM12.7182 6.72119H10.8911C10.8874 6.72242 10.8841 6.7248 10.8818 6.72799C10.8795 6.73118 10.8782 6.73502 10.8782 6.73896C10.8782 6.7429 10.8795 6.74674 10.8818 6.74993C10.8841 6.75312 10.8874 6.7555 10.8911 6.75673C11.0142 6.80426 11.1255 6.8778 11.2175 6.97233C11.3096 7.06686 11.3801 7.18014 11.4243 7.30443C11.4685 7.42872 11.4854 7.5611 11.4737 7.6925C11.4621 7.82391 11.4222 7.95125 11.3568 8.06582L8.69368 12.672C8.62488 12.7888 8.53106 12.8889 8.41898 12.9651C8.30689 13.0414 8.17932 13.0919 8.04541 13.113C7.9115 13.1341 7.77458 13.1253 7.64448 13.0872C7.51438 13.0491 7.39433 12.9826 7.29295 12.8927C7.28997 12.8887 7.28554 12.8861 7.28063 12.8854C7.27572 12.8847 7.27073 12.8859 7.26676 12.8889C7.2628 12.8919 7.26017 12.8963 7.25947 12.9012C7.25877 12.9061 7.26005 12.9111 7.26302 12.9151L8.19809 14.5384C8.30308 14.7205 8.4542 14.8718 8.63625 14.977C8.81829 15.0822 9.02483 15.1376 9.23509 15.1376C9.44534 15.1376 9.65188 15.0822 9.83393 14.977C10.016 14.8718 10.1671 14.7205 10.2721 14.5384L13.7562 8.51653C13.8613 8.33447 13.9166 8.12795 13.9165 7.91773C13.9164 7.70752 13.861 7.50103 13.7558 7.31903C13.6506 7.13704 13.4993 6.98597 13.3172 6.88102C13.135 6.77607 12.9284 6.72095 12.7182 6.72119ZM6.37658 6.72119C6.06477 6.72119 5.75996 6.81365 5.50071 6.98689C5.24145 7.16012 5.03938 7.40634 4.92006 7.69441C4.80073 7.98248 4.76951 8.29947 4.83034 8.60529C4.89117 8.9111 5.04132 9.19201 5.2618 9.41249C5.48229 9.63298 5.7632 9.78313 6.06901 9.84396C6.37483 9.90479 6.69182 9.87357 6.97989 9.75424C7.26796 9.63492 7.51418 9.43285 7.68741 9.17359C7.86064 8.91433 7.95311 8.60953 7.95311 8.29772C7.95335 8.09062 7.91274 7.8855 7.8336 7.69412C7.75446 7.50273 7.63834 7.32884 7.4919 7.1824C7.34546 7.03595 7.17156 6.91984 6.98018 6.8407C6.7888 6.76156 6.58368 6.72095 6.37658 6.72119Z" fill="url(#paint0_linear_8_2928)"/>
</g>
<defs>
<linearGradient id="paint0_linear_8_2928" x1="19.0158" y1="16.8144" x2="2.55042" y2="5.63291" gradientUnits="userSpaceOnUse">
<stop stop-color="#5433FF"/>
<stop offset="0.5" stop-color="#20BDFF"/>
<stop offset="1" stop-color="#5CFFA2"/>
</linearGradient>
<clipPath id="clip0_8_2928">
<rect width="24" height="24" fill="white"/>
</clipPath>
</defs>
</svg>

<svg xmlns="http://www.w3.org/2000/svg" width="24" height="24" fill="none" xmlns:v="https://vecta.io/nano"><g clip-path="url(#B)"><circle cx="12" cy="12" r="12" fill="#1f2028"/><path d="M18.957 9.442l-5.27 9.128c-.159.275-.388.504-.664.663s-.588.243-.906.243-.631-.084-.906-.243-.505-.387-.664-.663l-.924-1.599c-.003-.019 0-.023.004-.026.019-.003.023 0 .026.004a1.52 1.52 0 0 0 1.267.425 1.52 1.52 0 0 0 .642-.241c.193-.128.354-.299.47-.499l4.412-7.649a1.52 1.52 0 0 0 .086-1.341 1.52 1.52 0 0 0-1.012-.884c-.017-.009-.019-.014-.019-.019.009-.017.014-.019.019-.019h1.87c.318 0 .631.084.906.244s.504.388.663.664.243.588.242.907-.084.631-.243.907zm-6.239-2.721h-1.827c-.012.01-.013.014-.013.018.006.014.009.017.013.018.123.048.234.121.326.216s.163.208.207.332.061.257.049.388-.051.259-.117.373l-2.663 4.606a.92.92 0 0 1-.648.441.92.92 0 0 1-.752-.22c-.017-.008-.022-.007-.026-.004-.008.017-.007.022-.004.026l.935 1.623c.105.182.256.333.438.439s.389.161.599.161.417-.055.599-.161.333-.257.438-.439l3.484-6.022c.105-.182.16-.389.16-.599s-.055-.417-.161-.599-.257-.333-.439-.438-.389-.16-.599-.16zm-6.342 0c-.312 0-.617.092-.876.266s-.461.419-.581.708-.151.605-.09.911.211.587.431.807.501.371.807.431.623.03.911-.09.534-.321.708-.581.266-.564.266-.876c0-.207-.04-.412-.12-.604s-.195-.365-.342-.512-.32-.263-.512-.342-.396-.12-.604-.12z" fill="url(#A)"/></g><defs><linearGradient id="A" x1="19.016" y1="16.814" x2="2.55" y2="5.633" gradientUnits="userSpaceOnUse"><stop stop-color="#5433ff"/><stop offset=".5" stop-color="#20bdff"/><stop offset="1" stop-color="#5cffa2"/></linearGradient><clipPath id="B"><path fill="#fff" d="M0 0h24v24H0z"/></clipPath></defs></svg>
